src/topics/icons/io.svg

<svg height="291" preserveAspectRatio="xMidYMid" viewBox="0 0 256 291" width="256" xmlns="http://www.w3.org/2000/svg"><path d="m254.976496 145.213023c0 22.352868-.036217 44.705737.031256 67.058605.013395 4.403597-1.997395 7.520744-5.581395 9.608434-16.412776 9.560806-32.881117 19.02586-49.331597 28.521178-16.155783 9.324651-32.315039 18.642853-48.470822 27.968-5.850295 3.37662-11.680248 6.789458-17.546419 10.138295-4.077643 2.327318-8.142387 2.300031-12.252279-.084837-13.319442-7.730605-26.673116-15.402667-40.0104183-23.102512-11.5393488-6.661457-23.0742326-13.330357-34.6115969-19.995287-13.5496434-7.827349-27.1062326-15.64279-40.64545736-23.488-3.71894573-2.155163-5.55807752-5.437023-5.55807752-9.745364.00148837-44.581706.00644961-89.163907-.00744186-133.7456125-.00148837-4.5405272 2.07727132-7.7990698 5.92124031-10.0226977 10.46027903-6.0512248 20.92998453-12.0865736 31.39621703-18.1273798 15.2434109-8.7977675 30.487814-17.5935504 45.7302326-26.3933024 12.7469147-7.3585116 25.480434-14.74034105 38.242729-22.07156586 3.898046-2.23900775 7.849674-2.14077519 11.744248.10914729 12.128248 7.00477519 24.255504 14.01103877 36.38524 21.01333337 12.907659 7.4517829 25.819287 14.8966201 38.725457 22.3503876 12.50431 7.2215814 25.005148 14.4486201 37.505489 21.6766511 1.927442 1.1142946 3.910449 2.1204341 5.476713 3.7923721 1.869395 1.9949147 2.877023 4.2383876 2.87355 7.0161861-.029767 22.5081547-.016868 45.0158137-.016868 67.5239687" fill="#292926"/><g fill="#f3da47" transform="translate(88.310078 110.139535)"><path d="m59.0025426 53.6845891c-7.7355659 2.5451163-15.9072248-2.4915348-17.1172713-10.5505736-.6429767-4.2805581.011907-8.2976744 2.7921861-11.715969 3.3835659-4.16 7.8466976-5.744124 13.0659224-4.5941085 5.331845 1.1748217 8.5417675 4.7032558 9.9071008 9.9214884.3100775 1.1837519.3691163 2.4334883.5432558 3.6524651-.108155 6.3226046-3.624186 11.4555038-9.1911938 13.2866976zm15.59169-27.4495503c-4.9944807-6.3419535-11.7804652-9.0051473-19.8241241-9.2333644-.8483721.0610233-1.8346666.1111318-2.8169922.2058915-11.2248062 1.0835349-20.4284031 9.3102636-21.4211473 20.8590388-.6682791 7.7772403 1.6272868 14.5275038 7.6169922 19.6653643 6.7507597 5.7912558 14.7075969 7.3004651 23.1977675 5.2385736 18.6557519-4.5306046 22.4282791-25.0775814 13.2475039-36.7355038z"/><path d="m.20688372 26.5213023h6.86437209v27.8072558h-6.48285271v8.3433179h24.0987287v-8.3433179h-6.4873178v-36.1515659h-17.99293028z"/><path d="m7.07125581.55714729h11.12855819v9.81432561h-11.12855819z"/></g></svg>

<?xml version="1.0" encoding="UTF-8" standalone="no" ?>
<svg width="256px" height="291px" viewBox="0 0 256 291" version="1.1" xmlns="http://www.w3.org/2000/svg" xmlns:xlink="http://www.w3.org/1999/xlink" preserveAspectRatio="xMidYMid">
    <g>
        <path d="M254.976496,145.213023 C254.976496,167.565891 254.940279,189.91876 255.007752,212.271628 C255.021147,216.675225 253.010357,219.792372 249.426357,221.880062 C233.013581,231.440868 216.54524,240.905922 200.09476,250.40124 C183.938977,259.725891 167.779721,269.044093 151.623938,278.36924 C145.773643,281.74586 139.94369,285.158698 134.077519,288.507535 C129.999876,290.834853 125.935132,290.807566 121.82524,288.422698 C108.505798,280.692093 95.152124,273.020031 81.8148217,265.320186 C70.2754729,258.658729 58.7405891,251.989829 47.2032248,245.324899 C33.6535814,237.49755 20.0969922,229.682109 6.55776744,221.836899 C2.83882171,219.681736 0.999689922,216.399876 0.999689922,212.091535 C1.00117829,167.509829 1.00613953,122.927628 0.992248062,78.3459225 C0.99075969,73.8053953 3.06951938,70.5468527 6.91348837,68.3232248 C17.3737674,62.272 27.8434729,56.2366512 38.3097054,50.195845 C53.5531163,41.3980775 68.7975194,32.6022946 84.039938,23.8025426 C96.7868527,16.444031 109.520372,9.06220155 122.282667,1.73097674 C126.180713,-0.508031008 130.132341,-0.40979845 134.026915,1.84012403 C146.155163,8.84489922 158.282419,15.8511628 170.412155,22.8534574 C183.319814,30.3052403 196.231442,37.7500775 209.137612,45.203845 C221.641922,52.4254264 234.14276,59.6524651 246.643101,66.8804961 C248.570543,67.9947907 250.55355,69.0009302 252.119814,70.6728682 C253.989209,72.6677829 254.996837,74.9112558 254.993364,77.6890543 C254.963597,100.197209 254.976496,122.704868 254.976496,145.213023" fill="#292926"></path>
        <g transform="translate(88.310078, 110.139535)" fill="#F3DA47">
            <path d="M59.0025426,53.6845891 C51.2669767,56.2297054 43.0953178,51.1930543 41.8852713,43.1340155 C41.2422946,38.8534574 41.8971783,34.8363411 44.6774574,31.4180465 C48.0610233,27.2580465 52.524155,25.6739225 57.7433798,26.823938 C63.0752248,27.9987597 66.2851473,31.5271938 67.6504806,36.7454264 C67.9605581,37.9291783 68.0195969,39.1789147 68.1937364,40.3978915 C68.0855814,46.7204961 64.5695504,51.8533953 59.0025426,53.6845891 L59.0025426,53.6845891 Z M74.5942326,26.2350388 C69.5997519,19.8930853 62.8137674,17.2298915 54.7701085,17.0016744 C53.9217364,17.0626977 52.9354419,17.1128062 51.9531163,17.2075659 C40.7283101,18.2911008 31.5247132,26.5178295 30.531969,38.0666047 C29.8636899,45.843845 32.1592558,52.5941085 38.1489612,57.731969 C44.8997209,63.5232248 52.8565581,65.0324341 61.3467287,62.9705426 C80.0024806,58.439938 83.7750078,37.8929612 74.5942326,26.2350388 L74.5942326,26.2350388 Z"></path>
            <path d="M0.206883721,26.5213023 L7.07125581,26.5213023 L7.07125581,54.3285581 L0.588403101,54.3285581 L0.588403101,62.671876 L24.6871318,62.671876 L24.6871318,54.3285581 L18.199814,54.3285581 L18.199814,18.1769922 L0.206883721,18.1769922 L0.206883721,26.5213023"></path>
            <path d="M7.07125581,0.557147287 L18.199814,0.557147287 L18.199814,10.3714729 L7.07125581,10.3714729 L7.07125581,0.557147287 Z"></path>
        </g>
    </g>
</svg>
